X:1
T:[ID 2-47]
T:[ID 2-47]
T:Bezeichnung standardisiert: Tantz Tantz 25. In dieser Quelle auch als: Courant
T:Urheber unbekannt Erstbeleg: 1767 (Datum in der schriftlichen Quelle) Datum in der hier transkribierten schriftlichen Quelle: 1775
C:Urheber unbekannt
C:Erstbeleg: 1767 (Datum in der schriftlichen Quelle)
C:Datum in der hier transkribierten schriftlichen Quelle: 1775
L:1/8
M:2/4
K:D
V:1 treble 
V:1
 DFAd | e2 c2 | dc/B/ AB | A/B/A/G/ F/E/D/C/ | DFAd | e2 c2 | AG/F/ E/F/G/E/ | F4 :: fd d/e/f/d/ | %9
 ec c/d/e/c/ | fd d/e/f/d/ | ec c2 | FDFd | e2 c2 | AG/F/ E/F/G/E/ | F4 :| %16

